X:1
T:Title
L:1/8
Q:1/4=120
M:4/4
K:F
V:1 treble nm="Church Organ, Staff"
V:1
 A2 F2 E2 F2 | d2 c2- c/ z/ c A2 | A2 G2 A2 B2 | A2 G4 A2 | A2 F2 E2 F2 | d2 c2- c/ z/ c A2 | %6
w: By~H.~J.~Gauntlett * * *||||||
 A2 c2 F2 B2 | A2 G4 F2 | c2 d2 =B2 c2 | A2 f2- f/ z/ f e2 | A2 A2 d2 ^c2 | d2 e4 A2- | A2 f4 f2 | %13
w: |||||||
 d2 c2- c/ z/ A A2 | G2 A4 c2- | c2 d2 =B2 c2 | A2 G4 F2 |] %17
w: ||||

